images/50571415.svg

<?xml version="1.0" encoding="UTF-8"?>
<svg xmlns="http://www.w3.org/2000/svg" xmlns:xlink="http://www.w3.org/1999/xlink" width="300pt" height="300pt" viewBox="0 0 300 300" version="1.1">
<defs>
<g>
<symbol overflow="visible" id="glyph0-0">
<path style="stroke:none;" d="M 0.59375 2.125 L 0.59375 -8.46875 L 6.59375 -8.46875 L 6.59375 2.125 Z M 1.265625 1.453125 L 5.9375 1.453125 L 5.9375 -7.78125 L 1.265625 -7.78125 Z M 1.265625 1.453125 "/>
</symbol>
<symbol overflow="visible" id="glyph0-1">
<path style="stroke:none;" d="M 4.734375 -7.953125 C 3.867188 -7.953125 3.179688 -7.628906 2.671875 -6.984375 C 2.171875 -6.347656 1.921875 -5.472656 1.921875 -4.359375 C 1.921875 -3.265625 2.171875 -2.394531 2.671875 -1.75 C 3.179688 -1.113281 3.867188 -0.796875 4.734375 -0.796875 C 5.585938 -0.796875 6.265625 -1.113281 6.765625 -1.75 C 7.273438 -2.394531 7.53125 -3.265625 7.53125 -4.359375 C 7.53125 -5.472656 7.273438 -6.347656 6.765625 -6.984375 C 6.265625 -7.628906 5.585938 -7.953125 4.734375 -7.953125 Z M 4.734375 -8.90625 C 5.953125 -8.90625 6.925781 -8.492188 7.65625 -7.671875 C 8.394531 -6.847656 8.765625 -5.742188 8.765625 -4.359375 C 8.765625 -2.984375 8.394531 -1.882812 7.65625 -1.0625 C 6.925781 -0.238281 5.953125 0.171875 4.734375 0.171875 C 3.503906 0.171875 2.519531 -0.238281 1.78125 -1.0625 C 1.039062 -1.882812 0.671875 -2.984375 0.671875 -4.359375 C 0.671875 -5.742188 1.039062 -6.847656 1.78125 -7.671875 C 2.519531 -8.492188 3.503906 -8.90625 4.734375 -8.90625 Z M 4.734375 -8.90625 "/>
</symbol>
<symbol overflow="visible" id="glyph0-2">
<path style="stroke:none;" d="M 1.171875 -8.75 L 2.765625 -8.75 L 6.65625 -1.4375 L 6.65625 -8.75 L 7.796875 -8.75 L 7.796875 0 L 6.203125 0 L 2.328125 -7.3125 L 2.328125 0 L 1.171875 0 Z M 1.171875 -8.75 "/>
</symbol>
<symbol overflow="visible" id="glyph0-3">
<path style="stroke:none;" d="M 1.171875 -8.75 L 2.359375 -8.75 L 2.359375 -5.15625 L 6.65625 -5.15625 L 6.65625 -8.75 L 7.84375 -8.75 L 7.84375 0 L 6.65625 0 L 6.65625 -4.171875 L 2.359375 -4.171875 L 2.359375 0 L 1.171875 0 Z M 1.171875 -8.75 "/>
</symbol>
</g>
</defs>
<g id="surface14149">
<rect x="0" y="0" width="300" height="300" style="fill:rgb(100%,100%,100%);fill-opacity:1;stroke:none;"/>
<path style="fill:none;stroke-width:1.2;stroke-linecap:butt;stroke-linejoin:miter;stroke:rgb(100%,0%,0%);stroke-opacity:1;stroke-miterlimit:10;" d="M 131.613281 254.234375 L 145.617188 248.09375 "/>
<path style="fill:none;stroke-width:1.2;stroke-linecap:butt;stroke-linejoin:miter;stroke:rgb(0%,0%,0%);stroke-opacity:1;stroke-miterlimit:10;" d="M 145.617188 248.09375 L 159.617188 241.949219 "/>
<path style="fill:none;stroke-width:1.2;stroke-linecap:butt;stroke-linejoin:miter;stroke:rgb(0%,0%,0%);stroke-opacity:1;stroke-miterlimit:10;" d="M 111.273438 231.398438 L 121.441406 242.816406 "/>
<path style="fill:none;stroke-width:1.2;stroke-linecap:butt;stroke-linejoin:miter;stroke:rgb(100%,0%,0%);stroke-opacity:1;stroke-miterlimit:10;" d="M 121.441406 242.816406 L 131.613281 254.234375 "/>
<path style=" stroke:none;fill-rule:nonzero;fill:rgb(100%,100%,100%);fill-opacity:1;" d="M 126.613281 247.234375 L 136.613281 247.234375 L 136.613281 261.234375 L 126.613281 261.234375 Z M 126.613281 247.234375 "/>
<g style="fill:rgb(100%,0%,0%);fill-opacity:1;">
  <use xlink:href="#glyph0-1" x="126.613281" y="258.373047"/>
</g>
<path style="fill:none;stroke-width:1.2;stroke-linecap:butt;stroke-linejoin:miter;stroke:rgb(0%,0%,0%);stroke-opacity:1;stroke-miterlimit:10;" d="M 159.617188 241.949219 L 156.585938 211.515625 "/>
<path style="fill:none;stroke-width:1.2;stroke-linecap:butt;stroke-linejoin:miter;stroke:rgb(0%,0%,0%);stroke-opacity:1;stroke-miterlimit:10;" d="M 156.585938 211.515625 L 126.707031 204.996094 "/>
<path style="fill:none;stroke-width:1.2;stroke-linecap:butt;stroke-linejoin:miter;stroke:rgb(0%,0%,0%);stroke-opacity:1;stroke-miterlimit:10;" d="M 126.707031 204.996094 L 111.558594 178.429688 "/>
<path style="fill:none;stroke-width:1.2;stroke-linecap:butt;stroke-linejoin:miter;stroke:rgb(0%,0%,0%);stroke-opacity:1;stroke-miterlimit:10;" d="M 118.941406 205.90625 L 106.824219 184.652344 "/>
<path style="fill:none;stroke-width:1.2;stroke-linecap:butt;stroke-linejoin:miter;stroke:rgb(0%,0%,0%);stroke-opacity:1;stroke-miterlimit:10;" d="M 111.273438 231.398438 L 126.707031 204.996094 "/>
<path style="fill:none;stroke-width:1.2;stroke-linecap:butt;stroke-linejoin:miter;stroke:rgb(0%,0%,0%);stroke-opacity:1;stroke-miterlimit:10;" d="M 111.558594 178.429688 L 80.976562 178.265625 "/>
<path style="fill:none;stroke-width:1.2;stroke-linecap:butt;stroke-linejoin:miter;stroke:rgb(0%,0%,0%);stroke-opacity:1;stroke-miterlimit:10;" d="M 80.976562 178.265625 L 65.546875 204.667969 "/>
<path style="fill:none;stroke-width:1.2;stroke-linecap:butt;stroke-linejoin:miter;stroke:rgb(0%,0%,0%);stroke-opacity:1;stroke-miterlimit:10;" d="M 85.648438 184.539062 L 73.300781 205.660156 "/>
<path style="fill:none;stroke-width:1.2;stroke-linecap:butt;stroke-linejoin:miter;stroke:rgb(0%,0%,0%);stroke-opacity:1;stroke-miterlimit:10;" d="M 80.976562 178.265625 L 65.832031 151.699219 "/>
<path style="fill:none;stroke-width:1.2;stroke-linecap:butt;stroke-linejoin:miter;stroke:rgb(0%,0%,0%);stroke-opacity:1;stroke-miterlimit:10;" d="M 65.546875 204.667969 L 80.691406 231.234375 "/>
<path style="fill:none;stroke-width:1.2;stroke-linecap:butt;stroke-linejoin:miter;stroke:rgb(0%,0%,0%);stroke-opacity:1;stroke-miterlimit:10;" d="M 80.691406 231.234375 L 111.273438 231.398438 "/>
<path style="fill:none;stroke-width:1.2;stroke-linecap:butt;stroke-linejoin:miter;stroke:rgb(0%,0%,0%);stroke-opacity:1;stroke-miterlimit:10;" d="M 83.789062 224.054688 L 108.253906 224.1875 "/>
<path style="fill:none;stroke-width:1.2;stroke-linecap:butt;stroke-linejoin:miter;stroke:rgb(0%,0%,0%);stroke-opacity:1;stroke-miterlimit:10;" d="M 65.851562 148.101562 L 50.558594 148.019531 "/>
<path style="fill:none;stroke-width:1.2;stroke-linecap:butt;stroke-linejoin:miter;stroke:rgb(100%,0%,0%);stroke-opacity:1;stroke-miterlimit:10;" d="M 50.558594 148.019531 L 35.269531 147.9375 "/>
<path style="fill:none;stroke-width:1.2;stroke-linecap:butt;stroke-linejoin:miter;stroke:rgb(0%,0%,0%);stroke-opacity:1;stroke-miterlimit:10;" d="M 65.8125 155.296875 L 50.519531 155.214844 "/>
<path style="fill:none;stroke-width:1.2;stroke-linecap:butt;stroke-linejoin:miter;stroke:rgb(100%,0%,0%);stroke-opacity:1;stroke-miterlimit:10;" d="M 50.519531 155.214844 L 35.230469 155.132812 "/>
<path style="fill:none;stroke-width:1.2;stroke-linecap:butt;stroke-linejoin:miter;stroke:rgb(0%,0%,0%);stroke-opacity:1;stroke-miterlimit:10;" d="M 65.832031 151.699219 L 73.546875 138.5 "/>
<path style="fill:none;stroke-width:1.2;stroke-linecap:butt;stroke-linejoin:miter;stroke:rgb(0%,0%,100%);stroke-opacity:1;stroke-miterlimit:10;" d="M 73.546875 138.5 L 81.265625 125.296875 "/>
<path style=" stroke:none;fill-rule:nonzero;fill:rgb(100%,100%,100%);fill-opacity:1;" d="M 25.25 144.535156 L 35.25 144.535156 L 35.25 158.535156 L 25.25 158.535156 Z M 25.25 144.535156 "/>
<g style="fill:rgb(100%,0%,0%);fill-opacity:1;">
  <use xlink:href="#glyph0-1" x="25.25" y="155.673828"/>
</g>
<path style="fill:none;stroke-width:1.2;stroke-linecap:butt;stroke-linejoin:miter;stroke:rgb(0%,0%,100%);stroke-opacity:1;stroke-miterlimit:10;" d="M 81.265625 125.296875 L 73.691406 112.015625 "/>
<path style="fill:none;stroke-width:1.2;stroke-linecap:butt;stroke-linejoin:miter;stroke:rgb(0%,0%,0%);stroke-opacity:1;stroke-miterlimit:10;" d="M 73.691406 112.015625 L 66.117188 98.730469 "/>
<path style="fill:none;stroke-width:1.2;stroke-linecap:butt;stroke-linejoin:miter;stroke:rgb(0%,0%,100%);stroke-opacity:1;stroke-miterlimit:10;" d="M 81.265625 125.296875 L 96.554688 125.382812 "/>
<path style="fill:none;stroke-width:1.2;stroke-linecap:butt;stroke-linejoin:miter;stroke:rgb(0%,0%,0%);stroke-opacity:1;stroke-miterlimit:10;" d="M 96.554688 125.382812 L 111.84375 125.464844 "/>
<path style=" stroke:none;fill-rule:nonzero;fill:rgb(100%,100%,100%);fill-opacity:1;" d="M 77.265625 118.296875 L 86.265625 118.296875 L 86.265625 132.296875 L 77.265625 132.296875 Z M 77.265625 118.296875 "/>
<g style="fill:rgb(0%,0%,100%);fill-opacity:1;">
  <use xlink:href="#glyph0-2" x="77.265625" y="129.435547"/>
</g>
<path style="fill:none;stroke-width:1.2;stroke-linecap:butt;stroke-linejoin:miter;stroke:rgb(0%,0%,0%);stroke-opacity:1;stroke-miterlimit:10;" d="M 66.117188 98.730469 L 81.550781 72.332031 "/>
<path style="fill:none;stroke-width:1.2;stroke-linecap:butt;stroke-linejoin:miter;stroke:rgb(0%,0%,0%);stroke-opacity:1;stroke-miterlimit:10;" d="M 81.550781 72.332031 L 66.402344 45.765625 "/>
<path style="fill:none;stroke-width:1.2;stroke-linecap:butt;stroke-linejoin:miter;stroke:rgb(0%,0%,0%);stroke-opacity:1;stroke-miterlimit:10;" d="M 81.550781 72.332031 L 112.132812 72.496094 "/>
<path style="fill:none;stroke-width:1.2;stroke-linecap:butt;stroke-linejoin:miter;stroke:rgb(0%,0%,0%);stroke-opacity:1;stroke-miterlimit:10;" d="M 111.84375 125.464844 L 119.417969 138.746094 "/>
<path style="fill:none;stroke-width:1.2;stroke-linecap:butt;stroke-linejoin:miter;stroke:rgb(0%,0%,100%);stroke-opacity:1;stroke-miterlimit:10;" d="M 119.417969 138.746094 L 126.992188 152.03125 "/>
<path style="fill:none;stroke-width:1.2;stroke-linecap:butt;stroke-linejoin:miter;stroke:rgb(0%,0%,0%);stroke-opacity:1;stroke-miterlimit:10;" d="M 119.609375 124.554688 L 125.671875 135.183594 "/>
<path style="fill:none;stroke-width:1.2;stroke-linecap:butt;stroke-linejoin:miter;stroke:rgb(0%,0%,100%);stroke-opacity:1;stroke-miterlimit:10;" d="M 125.671875 135.183594 L 131.730469 145.808594 "/>
<path style="fill:none;stroke-width:1.2;stroke-linecap:butt;stroke-linejoin:miter;stroke:rgb(0%,0%,0%);stroke-opacity:1;stroke-miterlimit:10;" d="M 127.277344 99.0625 L 111.84375 125.464844 "/>
<path style="fill:none;stroke-width:1.2;stroke-linecap:butt;stroke-linejoin:miter;stroke:rgb(0%,0%,100%);stroke-opacity:1;stroke-miterlimit:10;" d="M 126.992188 152.03125 L 142.285156 152.113281 "/>
<path style="fill:none;stroke-width:1.2;stroke-linecap:butt;stroke-linejoin:miter;stroke:rgb(0%,0%,0%);stroke-opacity:1;stroke-miterlimit:10;" d="M 142.285156 152.113281 L 157.574219 152.195312 "/>
<path style=" stroke:none;fill-rule:nonzero;fill:rgb(100%,100%,100%);fill-opacity:1;" d="M 122.992188 145.03125 L 131.992188 145.03125 L 131.992188 159.03125 L 122.992188 159.03125 Z M 122.992188 145.03125 "/>
<g style="fill:rgb(0%,0%,100%);fill-opacity:1;">
  <use xlink:href="#glyph0-2" x="122.992188" y="156.169922"/>
</g>
<path style="fill:none;stroke-width:1.2;stroke-linecap:butt;stroke-linejoin:miter;stroke:rgb(0%,0%,0%);stroke-opacity:1;stroke-miterlimit:10;" d="M 157.574219 152.195312 L 165.289062 138.996094 "/>
<path style="fill:none;stroke-width:1.2;stroke-linecap:butt;stroke-linejoin:miter;stroke:rgb(0%,0%,100%);stroke-opacity:1;stroke-miterlimit:10;" d="M 165.289062 138.996094 L 173.007812 125.792969 "/>
<path style="fill:none;stroke-width:1.2;stroke-linecap:butt;stroke-linejoin:miter;stroke:rgb(0%,0%,0%);stroke-opacity:1;stroke-miterlimit:10;" d="M 152.90625 145.921875 L 159.078125 135.363281 "/>
<path style="fill:none;stroke-width:1.2;stroke-linecap:butt;stroke-linejoin:miter;stroke:rgb(0%,0%,100%);stroke-opacity:1;stroke-miterlimit:10;" d="M 159.078125 135.363281 L 165.25 124.800781 "/>
<path style="fill:none;stroke-width:1.2;stroke-linecap:butt;stroke-linejoin:miter;stroke:rgb(0%,0%,0%);stroke-opacity:1;stroke-miterlimit:10;" d="M 157.574219 152.195312 L 165.148438 165.476562 "/>
<path style="fill:none;stroke-width:1.2;stroke-linecap:butt;stroke-linejoin:miter;stroke:rgb(0%,0%,100%);stroke-opacity:1;stroke-miterlimit:10;" d="M 165.148438 165.476562 L 172.722656 178.761719 "/>
<path style="fill:none;stroke-width:1.2;stroke-linecap:butt;stroke-linejoin:miter;stroke:rgb(0%,0%,100%);stroke-opacity:1;stroke-miterlimit:10;" d="M 173.007812 125.792969 L 165.433594 112.511719 "/>
<path style="fill:none;stroke-width:1.2;stroke-linecap:butt;stroke-linejoin:miter;stroke:rgb(0%,0%,0%);stroke-opacity:1;stroke-miterlimit:10;" d="M 165.433594 112.511719 L 157.859375 99.226562 "/>
<path style=" stroke:none;fill-rule:nonzero;fill:rgb(100%,100%,100%);fill-opacity:1;" d="M 169.007812 118.792969 L 178.007812 118.792969 L 178.007812 132.792969 L 169.007812 132.792969 Z M 169.007812 118.792969 "/>
<g style="fill:rgb(0%,0%,100%);fill-opacity:1;">
  <use xlink:href="#glyph0-2" x="169.007812" y="129.931641"/>
</g>
<path style="fill:none;stroke-width:1.2;stroke-linecap:butt;stroke-linejoin:miter;stroke:rgb(0%,0%,0%);stroke-opacity:1;stroke-miterlimit:10;" d="M 157.859375 99.226562 L 127.277344 99.0625 "/>
<path style="fill:none;stroke-width:1.2;stroke-linecap:butt;stroke-linejoin:miter;stroke:rgb(0%,0%,0%);stroke-opacity:1;stroke-miterlimit:10;" d="M 154.761719 106.40625 L 130.296875 106.273438 "/>
<path style="fill:none;stroke-width:1;stroke-linecap:butt;stroke-linejoin:miter;stroke:rgb(0%,0%,0%);stroke-opacity:1;stroke-miterlimit:10;" d="M 203.300781 178.925781 L 203.300781 178.925781 M 200.351562 178.390625 L 200.34375 179.433594 M 197.398438 177.851562 L 197.386719 179.9375 M 194.449219 177.316406 L 194.429688 180.441406 M 191.496094 176.777344 L 191.472656 180.949219 M 188.542969 176.238281 L 188.515625 181.453125 M 185.59375 175.703125 L 185.558594 181.960938 M 182.640625 175.164062 L 182.601562 182.464844 M 179.691406 174.628906 L 179.644531 182.96875 M 176.738281 174.089844 L 176.6875 183.476562 M 173.789062 173.554688 L 173.730469 183.980469 M 172.75 173.363281 L 172.691406 184.160156 "/>
<path style=" stroke:none;fill-rule:nonzero;fill:rgb(100%,100%,100%);fill-opacity:1;" d="M 163.722656 171.761719 L 181.722656 171.761719 L 181.722656 185.761719 L 163.722656 185.761719 Z M 163.722656 171.761719 "/>
<g style="fill:rgb(0%,0%,100%);fill-opacity:1;">
  <use xlink:href="#glyph0-2" x="163.722656" y="182.900391"/>
  <use xlink:href="#glyph0-3" x="172.699219" y="182.900391"/>
</g>
<path style="fill:none;stroke-width:1.2;stroke-linecap:butt;stroke-linejoin:miter;stroke:rgb(0%,0%,0%);stroke-opacity:1;stroke-miterlimit:10;" d="M 203.300781 178.925781 L 218.449219 205.492188 "/>
<path style="fill:none;stroke-width:1.2;stroke-linecap:butt;stroke-linejoin:miter;stroke:rgb(0%,0%,0%);stroke-opacity:1;stroke-miterlimit:10;" d="M 203.300781 178.925781 L 218.734375 152.523438 "/>
<path style="fill:none;stroke-width:1.2;stroke-linecap:butt;stroke-linejoin:miter;stroke:rgb(0%,0%,0%);stroke-opacity:1;stroke-miterlimit:10;" d="M 218.734375 152.523438 L 249.316406 152.691406 "/>
<path style="fill:none;stroke-width:1.2;stroke-linecap:butt;stroke-linejoin:miter;stroke:rgb(0%,0%,0%);stroke-opacity:1;stroke-miterlimit:10;" d="M 221.832031 145.347656 L 246.296875 145.476562 "/>
<path style="fill:none;stroke-width:1.2;stroke-linecap:butt;stroke-linejoin:miter;stroke:rgb(0%,0%,0%);stroke-opacity:1;stroke-miterlimit:10;" d="M 203.589844 125.957031 L 218.734375 152.523438 "/>
<path style="fill:none;stroke-width:1.2;stroke-linecap:butt;stroke-linejoin:miter;stroke:rgb(0%,0%,0%);stroke-opacity:1;stroke-miterlimit:10;" d="M 249.316406 152.691406 L 264.75 126.289062 "/>
<path style="fill:none;stroke-width:1.2;stroke-linecap:butt;stroke-linejoin:miter;stroke:rgb(0%,0%,0%);stroke-opacity:1;stroke-miterlimit:10;" d="M 264.75 126.289062 L 249.601562 99.722656 "/>
<path style="fill:none;stroke-width:1.2;stroke-linecap:butt;stroke-linejoin:miter;stroke:rgb(0%,0%,0%);stroke-opacity:1;stroke-miterlimit:10;" d="M 256.984375 127.195312 L 244.867188 105.945312 "/>
<path style="fill:none;stroke-width:1.2;stroke-linecap:butt;stroke-linejoin:miter;stroke:rgb(0%,0%,0%);stroke-opacity:1;stroke-miterlimit:10;" d="M 249.601562 99.722656 L 219.023438 99.558594 "/>
<path style="fill:none;stroke-width:1.2;stroke-linecap:butt;stroke-linejoin:miter;stroke:rgb(0%,0%,0%);stroke-opacity:1;stroke-miterlimit:10;" d="M 219.023438 99.558594 L 203.589844 125.957031 "/>
<path style="fill:none;stroke-width:1.2;stroke-linecap:butt;stroke-linejoin:miter;stroke:rgb(0%,0%,0%);stroke-opacity:1;stroke-miterlimit:10;" d="M 223.691406 105.828125 L 211.34375 126.949219 "/>
</g>
</svg>

<svg xmlns="http://www.w3.org/2000/svg" xmlns:xlink="http://www.w3.org/1999/xlink" width="300pt" height="300pt" viewBox="0 0 300 300"><defs><symbol overflow="visible"><path d="M.594 2.125V-8.47h6V2.126zm.672-.672h4.671V-7.78h-4.67zm0 0"/></symbol><symbol overflow="visible" id="a"><path d="M4.734-7.953c-.867 0-1.554.324-2.062.97-.5.635-.75 1.51-.75 2.624 0 1.094.25 1.965.75 2.61.508.637 1.195.953 2.062.953.852 0 1.532-.316 2.032-.953.507-.645.765-1.516.765-2.61 0-1.113-.257-1.988-.764-2.624-.5-.645-1.18-.97-2.032-.97zm0-.953c1.22 0 2.192.414 2.922 1.234.74.824 1.11 1.93 1.11 3.313 0 1.376-.37 2.477-1.11 3.298C6.926-.24 5.953.17 4.734.17c-1.23 0-2.214-.41-2.953-1.234C1.04-1.882.673-2.984.673-4.36c0-1.382.367-2.488 1.11-3.312.738-.82 1.722-1.234 2.952-1.234zm0 0"/></symbol><symbol overflow="visible" id="b"><path d="M1.172-8.75h1.594l3.89 7.313V-8.75h1.14V0H6.204L2.328-7.313V0H1.172zm0 0"/></symbol><symbol overflow="visible" id="c"><path d="M1.172-8.75H2.36v3.594h4.296V-8.75h1.188V0H6.656v-4.172H2.36V0H1.17zm0 0"/></symbol></defs><g><path fill="#fff" d="M0 0h300v300H0z"/><path d="M131.613 254.234l14.004-6.14" stroke-width="1.2" stroke="#f00" stroke-miterlimit="10" fill="none"/><path d="M145.617 248.094l14-6.145M111.273 231.398l10.168 11.418" stroke-width="1.2" stroke="#000" stroke-miterlimit="10" fill="none"/><path d="M121.44 242.816l10.173 11.418" stroke-width="1.2" stroke="#f00" stroke-miterlimit="10" fill="none"/><path d="M126.613 247.234h10v14h-10zm0 0" fill="#fff"/><use xlink:href="#a" x="126.613" y="258.373" fill="#f00"/><path d="M159.617 241.95l-3.03-30.434M156.586 211.516l-29.88-6.52M126.707 204.996L111.56 178.43M118.94 205.906l-12.116-21.254M111.273 231.398l15.434-26.402M111.56 178.43l-30.583-.164M80.977 178.266l-15.43 26.402M85.648 184.54L73.3 205.66M80.977 178.266L65.832 151.7M65.547 204.668l15.144 26.566M80.69 231.234l30.583.164M83.79 224.055l24.464.132M65.852 148.102l-15.293-.082" stroke-width="1.2" stroke="#000" stroke-miterlimit="10" fill="none"/><path d="M50.56 148.02l-15.29-.083" stroke-width="1.2" stroke="#f00" stroke-miterlimit="10" fill="none"/><path d="M65.813 155.297l-15.293-.082" stroke-width="1.2" stroke="#000" stroke-miterlimit="10" fill="none"/><path d="M50.52 155.215l-15.29-.082" stroke-width="1.2" stroke="#f00" stroke-miterlimit="10" fill="none"/><path d="M65.832 151.7l7.715-13.2" stroke-width="1.2" stroke="#000" stroke-miterlimit="10" fill="none"/><path d="M73.547 138.5l7.72-13.203" stroke-width="1.2" stroke="#00f" stroke-miterlimit="10" fill="none"/><path d="M25.25 144.535h10v14h-10zm0 0" fill="#fff"/><use xlink:href="#a" x="25.25" y="155.674" fill="#f00"/><path d="M81.266 125.297l-7.575-13.28" stroke-width="1.2" stroke="#00f" stroke-miterlimit="10" fill="none"/><path d="M73.69 112.016L66.118 98.73" stroke-width="1.2" stroke="#000" stroke-miterlimit="10" fill="none"/><path d="M81.266 125.297l15.29.086" stroke-width="1.2" stroke="#00f" stroke-miterlimit="10" fill="none"/><path d="M96.555 125.383l15.29.082" stroke-width="1.2" stroke="#000" stroke-miterlimit="10" fill="none"/><path d="M77.266 118.297h9v14h-9zm0 0" fill="#fff"/><use xlink:href="#b" x="77.266" y="129.436" fill="#00f"/><path d="M66.117 98.73L81.55 72.332M81.55 72.332L66.403 45.766M81.55 72.332l30.583.164M111.844 125.465l7.574 13.28" stroke-width="1.2" stroke="#000" stroke-miterlimit="10" fill="none"/><path d="M119.418 138.746l7.574 13.285" stroke-width="1.2" stroke="#00f" stroke-miterlimit="10" fill="none"/><path d="M119.61 124.555l6.062 10.63" stroke-width="1.2" stroke="#000" stroke-miterlimit="10" fill="none"/><path d="M125.672 135.184l6.058 10.625" stroke-width="1.2" stroke="#00f" stroke-miterlimit="10" fill="none"/><path d="M127.277 99.063l-15.433 26.402" stroke-width="1.2" stroke="#000" stroke-miterlimit="10" fill="none"/><path d="M126.992 152.03l15.293.083" stroke-width="1.2" stroke="#00f" stroke-miterlimit="10" fill="none"/><path d="M142.285 152.113l15.29.082" stroke-width="1.2" stroke="#000" stroke-miterlimit="10" fill="none"/><path d="M122.992 145.03h9v14h-9zm0 0" fill="#fff"/><use xlink:href="#b" x="122.992" y="156.17" fill="#00f"/><path d="M157.574 152.195l7.715-13.2" stroke-width="1.2" stroke="#000" stroke-miterlimit="10" fill="none"/><path d="M165.29 138.996l7.718-13.203" stroke-width="1.2" stroke="#00f" stroke-miterlimit="10" fill="none"/><path d="M152.906 145.922l6.172-10.56" stroke-width="1.2" stroke="#000" stroke-miterlimit="10" fill="none"/><path d="M159.078 135.363l6.172-10.562" stroke-width="1.2" stroke="#00f" stroke-miterlimit="10" fill="none"/><path d="M157.574 152.195l7.574 13.282" stroke-width="1.2" stroke="#000" stroke-miterlimit="10" fill="none"/><path d="M165.148 165.477l7.575 13.285M173.008 125.793l-7.574-13.28" stroke-width="1.2" stroke="#00f" stroke-miterlimit="10" fill="none"/><path d="M165.434 112.512l-7.575-13.285" stroke-width="1.2" stroke="#000" stroke-miterlimit="10" fill="none"/><path d="M169.008 118.793h9v14h-9zm0 0" fill="#fff"/><use xlink:href="#b" x="169.008" y="129.932" fill="#00f"/><path d="M157.86 99.227l-30.583-.165M154.762 106.406l-24.465-.133" stroke-width="1.2" stroke="#000" stroke-miterlimit="10" fill="none"/><path d="M203.3 178.926m-2.948-.535l-.008 1.044m-2.946-1.582l-.01 2.085m-2.94-2.62l-.018 3.124m-2.934-3.663l-.023 4.172m-2.93-4.712l-.027 5.215m-2.922-5.75l-.035 6.258m-2.92-6.796l-.038 7.3m-2.91-7.835l-.047 8.34m-2.907-8.88l-.05 9.387m-2.9-9.922l-.058 10.425m-.98-10.617l-.06 10.797" stroke="#000" stroke-miterlimit="10" fill="none"/><path d="M163.723 171.762h18v14h-18zm0 0" fill="#fff"/><g fill="#00f"><use xlink:href="#b" x="163.723" y="182.9"/><use xlink:href="#c" x="172.699" y="182.9"/></g><path d="M203.3 178.926l15.15 26.566M203.3 178.926l15.434-26.403M218.734 152.523l30.582.168M221.832 145.348l24.465.13M203.59 125.957l15.144 26.566M249.316 152.69l15.434-26.4M264.75 126.29l-15.148-26.567M256.984 127.195l-12.117-21.25M249.602 99.723l-30.58-.164M219.023 99.56l-15.433 26.397M223.69 105.828l-12.346 21.12" stroke-width="1.2" stroke="#000" stroke-miterlimit="10" fill="none"/></g></svg>
